src/assets/instagram.svg

<svg width="26" height="26" viewBox="0 0 26 26" fill="none" xmlns="http://www.w3.org/2000/svg">
<path id="Vector" d="M7.82317 0.321309C6.49316 0.384059 5.58491 0.59631 4.79091 0.908311C3.96915 1.22856 3.27265 1.65831 2.57965 2.35382C1.88665 3.04932 1.4599 3.74632 1.14189 4.56932C0.834143 5.36508 0.625643 6.27408 0.566893 7.60483C0.508142 8.93559 0.495142 9.36334 0.501642 12.7579C0.508142 16.1524 0.523142 16.5779 0.587643 17.9114C0.651143 19.2411 0.862644 20.1491 1.17464 20.9434C1.4954 21.7651 1.92465 22.4614 2.6204 23.1546C3.31615 23.8479 4.01265 24.2736 4.83766 24.5921C5.63266 24.8994 6.54191 25.1089 7.87242 25.1671C9.20292 25.2254 9.63117 25.2389 13.0247 25.2324C16.4182 25.2259 16.8454 25.2109 18.1787 25.1476C19.512 25.0844 20.4152 24.8714 21.2097 24.5609C22.0315 24.2394 22.7282 23.8109 23.421 23.1149C24.1137 22.4189 24.5402 21.7214 24.858 20.8979C25.166 20.1029 25.3752 19.1936 25.433 17.8641C25.4912 16.5299 25.505 16.1039 25.4985 12.7099C25.492 9.31584 25.4767 8.89034 25.4135 7.55733C25.3502 6.22433 25.1385 5.31908 24.8267 4.52432C24.5055 3.70257 24.0767 3.00682 23.3812 2.31307C22.6857 1.61931 21.9877 1.19306 21.1645 0.876061C20.369 0.56831 19.4602 0.358559 18.1297 0.301059C16.7992 0.243559 16.3709 0.228809 12.9762 0.235309C9.58142 0.241809 9.15642 0.256309 7.82317 0.321309ZM7.96917 22.9184C6.75041 22.8654 6.08866 22.6629 5.64766 22.4934C5.06366 22.2684 4.64766 21.9964 4.20816 21.5611C3.76865 21.1259 3.49865 20.7084 3.27065 20.1256C3.0994 19.6846 2.89315 19.0236 2.83615 17.8049C2.77415 16.4876 2.76115 16.0921 2.7539 12.7549C2.74665 9.41759 2.7594 9.02259 2.81715 7.70483C2.86915 6.48708 3.0729 5.82458 3.24215 5.38383C3.46715 4.79907 3.73815 4.38382 4.1744 3.94457C4.61066 3.50532 5.02691 3.23482 5.61016 3.00682C6.05066 2.83482 6.71166 2.63032 7.92992 2.57232C9.24817 2.50982 9.64317 2.49732 12.9799 2.49007C16.3167 2.48282 16.7127 2.49532 18.0315 2.55332C19.2492 2.60632 19.912 2.80807 20.3522 2.97832C20.9365 3.20332 21.3522 3.47357 21.7915 3.91057C22.2307 4.34757 22.5015 4.76232 22.7295 5.34683C22.9017 5.78608 23.1062 6.44683 23.1637 7.66583C23.2265 8.98409 23.2407 9.37934 23.2467 12.7159C23.2527 16.0524 23.241 16.4486 23.1832 17.7659C23.13 18.9846 22.928 19.6466 22.7582 20.0881C22.5332 20.6719 22.262 21.0881 21.8255 21.5271C21.389 21.9661 20.9732 22.2366 20.3897 22.4646C19.9497 22.6364 19.288 22.8414 18.0707 22.8994C16.7524 22.9614 16.3574 22.9744 13.0194 22.9816C9.68142 22.9889 9.28767 22.9754 7.96942 22.9184M18.1595 6.05308C18.1599 6.34977 18.2484 6.63966 18.4137 6.88607C18.5789 7.13248 18.8135 7.32434 19.0879 7.4374C19.3622 7.55046 19.6638 7.57964 19.9547 7.52123C20.2456 7.46283 20.5127 7.31947 20.7221 7.10929C20.9315 6.89911 21.0738 6.63156 21.1312 6.34045C21.1885 6.04935 21.1582 5.74779 21.0442 5.47389C20.9301 5.2 20.7374 4.96609 20.4904 4.80174C20.2434 4.63739 19.9532 4.54998 19.6565 4.55057C19.2587 4.55137 18.8776 4.7101 18.5968 4.99186C18.3161 5.27362 18.1588 5.65534 18.1595 6.05308ZM6.58191 12.7464C6.58891 16.2914 9.46792 19.1586 13.0122 19.1519C16.5564 19.1451 19.4257 16.2664 19.419 12.7214C19.4122 9.17634 16.5324 6.30833 12.9877 6.31533C9.44292 6.32233 6.57516 9.20184 6.58191 12.7464ZM8.83342 12.7419C8.83179 11.9177 9.07457 11.1117 9.53107 10.4255C9.98756 9.73941 10.6373 9.20406 11.398 8.88719C12.1588 8.57031 12.9964 8.48613 13.805 8.64531C14.6136 8.80448 15.3568 9.19986 15.9407 9.78144C16.5246 10.363 16.9229 11.1047 17.0853 11.9126C17.2476 12.7206 17.1668 13.5585 16.8529 14.3205C16.5391 15.0825 16.0063 15.7343 15.322 16.1936C14.6377 16.6528 13.8325 16.8987 13.0084 16.9004C12.4612 16.9015 11.9192 16.7949 11.4132 16.5865C10.9072 16.3781 10.4472 16.0721 10.0595 15.6859C9.67182 15.2998 9.364 14.841 9.15362 14.3359C8.94324 13.8307 8.83444 13.2891 8.83342 12.7419Z" fill="white"/>
</svg>

<svg width="26" height="26" fill="none" xmlns="http://www.w3.org/2000/svg"><path d="M7.823.321c-1.33.063-2.238.275-3.032.587-.822.32-1.518.75-2.211 1.446a6.123 6.123 0 0 0-1.438 2.215C.834 5.365.626 6.274.567 7.605.508 8.935.495 9.363.502 12.758c.006 3.394.021 3.82.086 5.153.063 1.33.275 2.238.587 3.032.32.822.75 1.518 1.445 2.212a6.116 6.116 0 0 0 2.218 1.437c.795.307 1.704.517 3.034.575 1.33.058 1.76.072 5.153.065 3.393-.006 3.82-.021 5.154-.084 1.333-.064 2.236-.277 3.03-.587a6.127 6.127 0 0 0 2.212-1.446 6.127 6.127 0 0 0 1.437-2.217c.308-.795.517-1.704.575-3.034.058-1.334.072-1.76.066-5.154-.007-3.394-.022-3.82-.085-5.153-.064-1.333-.276-2.238-.587-3.033a6.136 6.136 0 0 0-1.446-2.21A6.1 6.1 0 0 0 21.165.875C20.369.568 19.46.36 18.13.301 16.8.244 16.37.23 12.976.235c-3.395.007-3.82.021-5.153.086Zm.146 22.597c-1.219-.053-1.88-.255-2.321-.425-.584-.225-1-.497-1.44-.932a3.85 3.85 0 0 1-.937-1.435c-.172-.441-.378-1.102-.435-2.321-.062-1.317-.075-1.713-.082-5.05-.007-3.337.005-3.732.063-5.05.052-1.218.256-1.88.425-2.321.225-.585.496-1 .932-1.44.437-.439.853-.71 1.436-.937.44-.172 1.102-.377 2.32-.435 1.318-.062 1.713-.075 5.05-.082 3.337-.007 3.733.005 5.052.063 1.217.053 1.88.255 2.32.425.584.225 1 .496 1.44.933.439.437.71.851.938 1.436.172.44.376 1.1.434 2.319.063 1.318.077 1.713.083 5.05.006 3.336-.006 3.733-.064 5.05-.053 1.219-.255 1.88-.425 2.322-.225.584-.496 1-.932 1.44-.437.438-.853.709-1.436.937-.44.171-1.102.376-2.32.434-1.318.062-1.713.075-5.05.083-3.339.007-3.732-.007-5.05-.064M18.16 6.053a1.499 1.499 0 1 0 2.997-.004 1.499 1.499 0 0 0-2.997.004ZM6.582 12.746a6.42 6.42 0 1 0 12.836-.027 6.42 6.42 0 0 0-12.836.027Zm2.251-.004a4.167 4.167 0 1 1 8.334-.017 4.167 4.167 0 0 1-8.334.017Z" fill="#fff"/></svg>
